icons/1_Primary/SimpleLogin.svg

<svg width="1024" height="1024" viewBox="0 0 1024 1024" fill="none" xmlns="http://www.w3.org/2000/svg">
<g clip-path="url(#clip0_2_3471)">
<path d="M512 1024C794.77 1024 1024 794.77 1024 512C1024 229.23 794.77 0 512 0C229.23 0 0 229.23 0 512C0 794.77 229.23 1024 512 1024Z" fill="#FF837D"/>
<path d="M332.62 341L332.53 341.09H332.71L332.62 341ZM751.62 341.09H332.53L327.24 346.56L326.34 347.56C322.34 351.77 318.09 355.81 313.88 359.62C281.998 389.41 243.336 410.979 201.24 422.46C200.03 422.82 198.86 423.09 197.65 423.46L192.36 424.76L191.15 430C190.7 431.93 190.34 433.85 189.94 435.87C187.346 449.491 186.027 463.324 186 477.19C186 519.737 198.379 561.364 221.627 596.997C244.875 632.63 277.989 660.73 316.93 677.87C317.83 678.32 318.86 678.77 319.84 679.17C322.04 680.17 324.23 681.01 326.43 681.9L329.07 682.9L329.43 682.99L329.61 682.9C329.811 682.974 330.026 683.004 330.24 682.99H751.54C753.699 682.994 755.838 682.572 757.834 681.749C759.831 680.926 761.645 679.717 763.174 678.192C764.702 676.667 765.915 674.855 766.744 672.861C767.572 670.867 767.999 668.729 768 666.57V357.42C768.014 355.29 767.609 353.179 766.807 351.206C766.005 349.233 764.823 347.438 763.327 345.922C761.83 344.406 760.05 343.2 758.088 342.373C756.126 341.546 754.02 341.113 751.89 341.1L751.62 341.09ZM723.16 367.36L547.76 520.26C546.011 521.765 543.776 522.586 541.468 522.569C539.161 522.553 536.937 521.7 535.21 520.17L478 469.48C477.752 457.285 476.434 445.135 474.06 433.17C473.88 432.183 473.7 431.153 473.52 430.08L472.31 424.79L467 423.4C465.7 423.13 464.44 422.77 463.15 422.5C433.992 414.523 406.435 401.558 381.7 384.18L362.7 367.42H723.18L723.16 367.36ZM487.09 511.66L472.7 524.39C474.353 517.109 475.638 509.75 476.55 502.34L487.09 511.66ZM329.8 664.38C324.398 662.164 319.09 659.726 313.89 657.07C280.811 640.069 253.035 614.313 233.59 582.609C214.146 550.905 203.779 514.471 203.62 477.28C203.603 464.504 204.835 451.756 207.3 439.22C246.306 428.746 282.637 410.093 313.88 384.5C320.38 379.3 326.61 373.7 332.62 367.83C362.066 396.541 397.373 418.544 436.12 432.33C443.07 434.89 450.12 437.08 457.37 439.01C458.18 443.58 458.94 448.24 459.37 452.91C460.21 460.411 460.644 467.952 460.67 475.5C460.67 479.62 460.58 483.75 460.22 487.87C459.043 507.954 454.811 527.741 447.67 546.55C437.509 573.43 421.743 597.839 401.421 618.155C381.098 638.471 356.683 654.228 329.8 664.38ZM380.94 657.61C411.797 636.888 436.89 608.674 453.87 575.61L506.49 529.13L535 554.69C536.746 556.228 538.993 557.077 541.32 557.077C543.647 557.077 545.894 556.228 547.64 554.69L576.73 528.87L722.73 657.43L380.94 657.61ZM596.63 511.61L742.76 381.72L743.03 640.72L596.63 511.61ZM369.24 615.61C376.21 610.497 382.706 604.767 388.65 598.49L369.24 615.61ZM434.37 465.09C433.92 461.41 433.37 457.78 432.71 454.09C426.93 452.52 421.28 450.68 415.71 448.62C415.686 448.62 415.663 448.611 415.646 448.594C415.629 448.577 415.62 448.554 415.62 448.53C414.14 448.08 412.8 447.45 411.32 446.87C408.14 445.57 404.91 444.23 401.73 442.66C399.53 441.66 397.25 440.66 395.05 439.48C393.431 438.728 391.846 437.904 390.3 437.01C385.3 434.37 380.3 431.41 375.46 428.31C372.46 426.47 369.46 424.46 366.67 422.44C366.413 422.352 366.183 422.201 366 422C362.91 419.89 359.86 417.61 356.86 415.32C350.86 410.75 345.16 405.91 339.56 400.75C337.18 398.64 334.81 396.45 332.56 394.16C326.56 399.94 320.343 405.497 313.91 410.83C289.881 430.882 261.927 445.692 231.84 454.31C229.893 464.424 228.908 474.7 228.9 485C228.976 514.445 236.89 543.338 251.828 568.712C266.767 594.086 288.191 615.026 313.9 629.38C319.203 632.285 324.665 634.889 330.26 637.18C333.53 635.88 336.85 634.54 340.03 633.06C340.098 633.051 340.162 633.019 340.21 632.97C342.85 631.76 345.5 630.5 348.1 629.12C350.484 627.929 352.803 626.613 355.05 625.18C355.812 624.797 356.547 624.363 357.25 623.88C358.46 623.16 359.63 622.4 360.75 621.68C361.025 621.553 361.271 621.369 361.47 621.14C363.54 619.871 365.543 618.496 367.47 617.02C368.15 616.653 368.771 616.184 369.31 615.63L388.72 598.51C388.9 598.51 388.9 598.51 388.9 598.42C408.271 578.308 422.268 553.644 429.6 526.7C433.497 512.627 435.472 498.092 435.47 483.49C435.417 477.342 435.05 471.201 434.37 465.09ZM339.88 559.09L325 574.06H324.91L263.1 512.29L282.1 493.15L325 536L339.93 521.07L392 468.94L411 488L339.88 559.09Z" fill="white"/>
</g>
<defs>
<clipPath id="clip0_2_3471">
<rect width="1024" height="1024" fill="white"/>
</clipPath>
</defs>
</svg>

<svg xmlns="http://www.w3.org/2000/svg" viewBox="0 0 1024 1024">
   <circle cx="512" cy="512" r="512" style="fill:#ed2e7c"/>
   <path d="m332.62 341-.09.09h.18Zm419 .09H332.53l-5.29 5.47-.9 1c-4 4.21-8.25 8.25-12.46 12.06a268.44 268.44 0 0 1-112.64 62.84c-1.21.36-2.38.63-3.59 1l-5.29 1.3-1.21 5.24c-.45 1.93-.81 3.85-1.21 5.87a223.27 223.27 0 0 0-3.94 41.32 219.26 219.26 0 0 0 130.93 200.68c.9.45 1.93.9 2.91 1.3 2.2 1 4.39 1.84 6.59 2.73l2.64 1 .36.09.18-.09a1.53 1.53 0 0 0 .63.09h421.3A16.43 16.43 0 0 0 768 666.57V357.42a16.21 16.21 0 0 0-16.11-16.32Zm-28.46 26.27-175.4 152.9a9.54 9.54 0 0 1-12.55-.09L478 469.48a208.35 208.35 0 0 0-3.94-36.31q-.27-1.48-.54-3.09l-1.21-5.29-5.31-1.39c-1.3-.27-2.56-.63-3.85-.9a261.89 261.89 0 0 1-81.45-38.32l-19-16.76h360.48Zm-236.07 144.3-14.39 12.73a222.08 222.08 0 0 0 3.85-22.05ZM329.8 664.38a211.2 211.2 0 0 1-15.91-7.31 203.12 203.12 0 0 1-110.27-179.79 195.94 195.94 0 0 1 3.68-38.06 284.7 284.7 0 0 0 106.58-54.72c6.5-5.2 12.73-10.8 18.74-16.67a285.21 285.21 0 0 0 103.5 64.5c6.95 2.56 14 4.75 21.25 6.68.81 4.57 1.57 9.23 2 13.9a209.38 209.38 0 0 1 1.3 22.59c0 4.12-.09 8.25-.45 12.37a197.93 197.93 0 0 1-12.55 58.68A202.48 202.48 0 0 1 329.8 664.38Zm51.14-6.77a219.64 219.64 0 0 0 72.93-82l52.62-46.48L535 554.69a9.56 9.56 0 0 0 12.64 0l29.09-25.82 146 128.56Zm215.69-146 146.13-129.89.27 259Zm-227.39 104a144.16 144.16 0 0 0 19.41-17.12Zm65.13-150.52c-.45-3.68-1-7.31-1.66-11-5.78-1.57-11.43-3.41-17-5.47a.09.09 0 0 1-.09-.09c-1.48-.45-2.82-1.08-4.3-1.66-3.18-1.3-6.41-2.64-9.59-4.21-2.2-1-4.48-2-6.68-3.18a59.85 59.85 0 0 1-4.75-2.47c-5-2.64-10-5.6-14.84-8.7-3-1.84-6-3.85-8.79-5.87a1.61 1.61 0 0 1-.67-.44c-3.09-2.11-6.14-4.39-9.14-6.68-6-4.57-11.7-9.41-17.3-14.57-2.38-2.11-4.75-4.3-7-6.59q-9 8.67-18.65 16.67a224.64 224.64 0 0 1-82.07 43.48A163 163 0 0 0 228.9 485a165.85 165.85 0 0 0 85 144.38 161.12 161.12 0 0 0 16.36 7.8c3.27-1.3 6.59-2.64 9.77-4.12a.31.31 0 0 0 .18-.09c2.64-1.21 5.29-2.47 7.89-3.85a76.56 76.56 0 0 0 6.95-3.94 18.77 18.77 0 0 0 2.2-1.3c1.21-.72 2.38-1.48 3.5-2.2a2.16 2.16 0 0 0 .72-.54 70.25 70.25 0 0 0 6-4.12 7.62 7.62 0 0 0 1.84-1.39l19.41-17.12c.18 0 .18 0 .18-.09a166.34 166.34 0 0 0 40.7-71.72 161.84 161.84 0 0 0 5.87-43.21 180.46 180.46 0 0 0-1.1-18.4Zm-94.49 94L325 574.06h-.09l-61.81-61.77 19-19.14L325 536l14.93-14.93L392 468.94 411 488Z" style="fill:#fff"/>
</svg>
